X: 17337
T: High Bill
R: hornpipe
M: 4/4
K: Dmajor
fg|:afbf afef|dB (3ABc defd|edef gfed|(3cdc (3BcB A2 (3efg|
afbf afef|dB (3ABc defg|abag fedB|1 (3ABc de d2 f2:|2 (3ABc de d2 d2||
|:cdef edcB|cdef ge a2|cdef edcB|cAec A2 ag|
(3fgf (3efe dBAG|FAdf afbf|gfed ceag|1 (3fgf (3efe d2 d2:|2 (3fgf (3efe d2||

